X:1
T:Pour la Vierge
T:Marc-Antoine Charpentier (c.1645-1704)
T:Edited by L. Jones May 2010
T:Pour la Vierge
T:H.360 c.1691
C:Marc-Antoine Charpentier
C:(c.1645-1704)
Z:Edited by L. Jones
Z:May 2010
%%score [ 1 2 ] 3
L:1/8
M:3/4
K:C
V:1 tenor transpose=-12 nm="[Taille]" snm="T."
V:2 bass nm="[Basse]" snm="B."
V:3 bass nm="[Basse continue]" snm="B.c."
V:1
 x6 | z2 G2 E2 | F3 E D2 | z2 E2 C2 | D3 D E2 | z2 F2 D2 | E2 E2 F2 | PD4 D2 | z2 E2 G2 | %9
w: |Fe- lix|nam- que es,|fe- lix|nam- que es|sac- ra|Vir- go Ma-|ri- a,|sac- ra|
 C2 D2 E2 | E2 PD4 | C6 | z6 | F2 D3 F | B,2 B,2 C2 | D3 D D2 | z2 G,2 A,2 | B,3 B, B,^C | %18
w: Vir- go Ma-|ri- *|a||et om- ni|lau- de di-|gnis- si- ma,|ex te|en- im ort- us|
 D2 D2 E2 | F3 F E2 | z6 | z2 C2 D2 | E4 D2 | z2 E2 D2 | CD ED CB, | A,2 ^F,2 B,2 | B,2 PA,4 | %27
w: est sol iu-|sti- ti- ae||Chri- ste|De- us,|Chri- ste|De- * * * * *|* * us|no- *|
 G,6 | z6 | z6 | z6 | D2 D2 E2 | ^C3 C C2 | z2 D2 E2 | F2 E2 D2 | F2 PE4 | D4 z2 | z6 | z6 | z6 | %40
w: ster.||||Or- a pro|po- pu- lo|in- ter-|ve- ni pro|cle- *|ro||||
 z6 | z6 | F3 E D2 | E3 D C2 | D4 B,2 | C2 E2 C2 | A,4 A,2 | D2 D2 D2 | B,3 B, B,2 | E2 E2 E2 | %50
w: ||sen- ti- ant,|sen- ti- ant|om- nes|tu- uam le-|va- men|qui- cun- que|ce- le- brant,|qui- cun- que|
 C3 C C2 | z2 F2 F2 | D4 D2 | E2 EE FG | C2 C2 z2 | z2 D2 D2 | D2 D2 z2 | E2 E3 E | F6- | F4 E2 | %60
w: ce- le- brant|tu- am|sanc- tam|com- mem- or- a- ti-|o- nem,|tu- am|sanc- tam|com- mem- or-|a-|* ti-|
 E2 PD4 | !fermata!C6 |] %62
w: o- *|nem.|
V:2
 x6 | z6 | z6 | z2 C2 A,2 | _B,3 A, G,2 | z2 A,2 =B,2 | C2 A,2 F,2 | G,4 G,2 | z2 C2 E,2 | %9
w: |||Fe- lix|nam- que es|sac- ra|Vir- go Ma-|ri- a,|sac- ra|
 F,2 D,2 C,2 | G,6 | C,6 | C2 A,3 C | F,2 F,2 F,2 | G,3 G, A,A, | G,3 G, G,2 | z6 | z6 | z6 | %19
w: Vir- go Ma-|ri-|a|et om- ni|lau- de di-|gnis- si- ma, di-|gnis- si- ma,||||
 z2 D,2 E,2 | F,3 F, F,G, | A,2 A,2 B,2 | C3 C B,2 | z2 C2 B,2 | A,B, CB, A,G, | ^F,2 D,2 G,2- | %26
w: ex te|en- im ort- us|est sol iu-|sti- ti- ae,|Chri- ste|De- * * * * *|* us no-|
 G,4 ^F,2 | G,6 | z6 | z6 | z6 | z6 | z6 | z6 | z6 | z6 | z2 A,2 B,2 | ^G,3 G, A,B, | C2 C2 B,2 | %39
w: |ster.|||||||||in- ter-|ce- de pro de-|vo- to fe-|
 D3 C B,A, | C2 PB,4 | A,4 z2 | z6 | C3 B, A,2 | B,4 G,2 | E,2 E,2 E,2 | F,4 F,2 | z6 | %48
w: mi- ne- o _|sex- *|u:||sen- ti- ant|om- nes|tu- um le-|va- men||
 G,2 G,2 G,2 | E,3 E, E,2 | A,2 A,2 A,2 | F,3 F, F,2 | z2 _B,2 B,2 | G,4 G,2 | A,2 A,A, B,C | %55
w: qui- cun- que|ce- le- brant,|qui- cun- que|ce- le- brant|tu- am|sanc- ta|com- mem- or- a- ti-|
 F,2 F,2 z2 | z2 G,2 G,2 | G,2 G,2 z2 | A,2 A,3 A, | B,4 C2 | G,6 | !fermata!C,6 |] %62
w: o- nem,|tu- am|sanc- tam|com- mem- or-|a- ti-|o-|nem.|
V:3
 x6 | C2 B,2 C2 |"^65" F,4 G,2 | C,2 C2"^6" A,2 | _B,3 A,"^6" G,2 |"^6" A,4 =B,2 | C2 A,2 F,2 | %7
 G,4 F,2 | E,4 E,2 | F,2"^6" D,2 C,2 |"^64" G,2"^54""^3" G,,4 | C,6 | C2 A,3 C | %13
"^9""^[8]6" F,4 F,2 | G,4"^´" A,2 | G,6- | G,6- | G,6 |"^64" F,4"^´" E,2 | D,2 D,2 E,2 | F,4 F,G, | %21
 A,2 A,2 B,2 | C4 G,2 | C,6 |"^6" C,6- |"^6K2" C,4 B,,2 |"^64""^54""^#" D,6 | G,,2 G,F, E,D, | %28
 C,3 D,"^5" E,2 | C,2 D,4 | G,,6 |"^5""^6" G,6- |"^K2" G,6 |"^64" F,4"^6#" E,2 | %34
 D,2 C,2"^6" _B,,2 |"^64""^54""^#" A,,6 | D,2"^6" F,2"^6" D,2 |"^#" E,3 D,"^6K" C,"^´"B,, | %38
 A,,2 A,2"^6" G,2 |"^6" F,3"^6" E,"^6" D,2- |"^[7]" D,2"^#" E,4 | A,,2 A,2 G,2 |"^53""^64" F,6 | %43
 C3 B,"^´" A,2 | G,4 F,2 | E,4 E,2 |"^7" F,4 F,2 |"^6" ^F,6 | G,6 | E,6 | A,6 | F,6 | _B,4 B,2 | %53
"^6" G,6 |"^5" A,4 G,2 |"^6" F,4 F,2 | G,A, G,F, E,D, | C,4 C2 |"^5""^6" F,4 F,2 | G,4 C,2 | %60
"^64" G,2"^54""^3" G,,4 | !fermata!C,6 |] %62

